!!!COM: Music21
!!!OTL: Carvalhesa
!!!OMV: pezas_muineiras_carballesas_carvalhesa_carvalhesa-partitura.musicxml
**kern
*I"Bagpipes
*I'Bag
*clefG^2
*k[]
*M2/4
=1
!LO:TX:a:t=Allegro
*MM132
!LO:TX:a:t=[quarter]=132
4ccc
4gg
=
4ee
8ccL
8ddJ
=
8eeL
8ddJ
8eeL
8ccJ
=
4gg
4cc
=
4ccc
4gg
=
4ee
8ccL
8ddJ
=
8eeL
8ffJ
8ddL
8eeJ
=
2cc
=||
*M2/4
!LO:TX:a:t=Allegro
*MM132
!LO:TX:a:t=[quarter]=132
4ccc
4gg
=
4ee
8ccL
8ddJ
=
8eeL
8ddJ
8eeL
8ccJ
=
4gg
4cc
!!linebreak:original
=
4ccc
4gg
=
4ee
8ccL
8ddJ
=
8eeL
8ffJ
8ddL
8eeJ
=
2cc
=||
4gg
4gg
=
4ccc
8ggL
8aaJ
=
8bbL
8aaJ
4gg
=
4ee
4cc
=
4gg
4gg
=
4ccc
8ggL
8aaJ
!!linebreak:original
=
8bbL
8aaJ
8ggL
8aaJ
=
16eeLL
16ff
16ee
16ddJJ
4cc
=||
4ee
8eeL
8ggJ
=
2ff
=
8eeL
8ddJ
8eeL
8ccJ
=
4gg
4cc
=
4ee
8eeL
8ggJ
=
4.ff
8gg
=
8eeL
8ffJ
8ddL
8eeJ
=
2cc
=||
4ee
8eeL
8ggJ
=
2ff
!!linebreak:original
=
8eeL
8ddJ
8eeL
8ccJ
=
4gg
4cc
=
4ee
8eeL
8ggJ
=
4.ff
8gg
=
8eeL
8ffJ
8ddL
8eeJ
=
2cc
=||
4gg
4gg
=
4.ee
8aa
=
8aaL
8ggJ
8aaL
8bbJ
!!linebreak:original
=
4gg
4ee
=
4gg
4gg
=
4.ee
8aa
=
8aaL
8ggJ
8aaL
8bbJ
=
16ggLL
16aa
16gg
16ffJJ
4ee
=
4gg
8ggL
8ffJ
=
4ee
8ccL
8ddJ
=
8eeL
8ddJ
8eeL
8ccJ
=
4gg
4cc
=
4ff
8ffL
8ggJ
=
4ee
8ccL
8ddJ
=
8eeL
8ffJ
8ddL
8eeJ
!!linebreak:original
=
2cc
!!linebreak:original
=
4ff
8ffL
8ggJ
=
4ee
8ccL
8ddJ
=
8eeL
8ddJ
8eeL
8ccJ
=
4gg
4cc
=
4ff
8ffL
8ggJ
=
4ee
8ccL
8ddJ
=
8eeL
8ffJ
8ddL
8eeJ
=
2cc
=||
*M2/4
!LO:TX:a:t=Allegro
*MM132
!LO:TX:a:t=[quarter]=132
4ccc
4gg
=
4ee
8ccL
8ddJ
=
8eeL
8ddJ
8eeL
8ccJ
=
4gg
4cc
!!linebreak:original
=
4ccc
4gg
=
4ee
8ccL
8ddJ
=
8eeL
8ffJ
8ddL
8eeJ
=
2cc
=||
4gg
4gg
=
4ccc
8ggL
8aaJ
=
8bbL
8aaJ
4gg
=
4ee
4cc
=
4gg
4gg
=
4ccc
8ggL
8aaJ
!!linebreak:original
=
8bbL
8aaJ
8ggL
8aaJ
=
16eeLL
16ff
16ee
16ddJJ
4cc
=||
4ee
8eeL
8ggJ
=
2ff
=
8eeL
8ddJ
8eeL
8ccJ
=
4gg
4cc
=
4ee
8eeL
8ggJ
=
4.ff
8gg
=
8eeL
8ffJ
8ddL
8eeJ
=
2cc
=||
4gg
4gg
=
4.ee
8aa
!!linebreak:original
=
8aaL
8ggJ
8aaL
8bbJ
!!linebreak:original
=
4gg
4ee
=
4gg
4gg
=
4.ee
8aa
=
8aaL
8ggJ
8aaL
8bbJ
=
16ggLL
16aa
16gg
16ffJJ
4ee
=
4gg
8ggL
8ffJ
=
4ee
8ccL
8ddJ
=
8eeL
8ddJ
8eeL
8ccJ
=
4gg
4cc
=
4ff
8ffL
8ggJ
=
4ee
8ccL
8ddJ
=
8eeL
8ffJ
8ddL
8eeJ
!!linebreak:original
=
2cc
!!pagebreak:original
=
4ff
8ffL
8ggJ
=
4ee
8ccL
8ddJ
=
8eeL
8ddJ
8eeL
8ccJ
=
4gg
4cc
=
4ff
8ffL
8ggJ
=
4ee
8ccL
8ddJ
=
8eeL
8ffJ
8ddL
8eeJ
=
2cc
=||
4ccc
4gg
=
*-
